Newaita-dark/mimetypes/24/text-x-xges.svg

<svg height="24" viewBox="0 0 24 24" width="24" xmlns="http://www.w3.org/2000/svg" xmlns:xlink="http://www.w3.org/1999/xlink"><linearGradient id="a"><stop offset="0" stop-opacity=".27451"/><stop offset="1" stop-opacity="0"/></linearGradient><linearGradient id="b" gradientUnits="userSpaceOnUse" x1="12.403533" x2="12.403533" xlink:href="#a" y1="21.02545225" y2="22.01773525002"/><linearGradient id="c"><stop offset="0" stop-opacity=".313726"/><stop offset=".222222" stop-opacity=".27451"/><stop offset="1" stop-opacity="0"/></linearGradient><radialGradient id="d" cx="450.908936" cy="189.579361" gradientTransform="matrix(.00000013 -.0585994 -.105479 -.00000008 37.113427 47.696499)" gradientUnits="userSpaceOnUse" r="21.166656" xlink:href="#c"/><radialGradient id="e" cx="450.908936" cy="189.579361" gradientTransform="matrix(-.00000013 .0585994 .105479 .00000008 -13.794787 -5.645609)" gradientUnits="userSpaceOnUse" r="21.166656" xlink:href="#c"/><radialGradient id="f" cx="450.908936" cy="189.579361" gradientTransform="matrix(-.00000013 -.0585994 .105479 -.00000008 -13.794787 47.696499)" gradientUnits="userSpaceOnUse" r="21.166656" xlink:href="#c"/><radialGradient id="g" cx="450.908936" cy="189.579361" gradientTransform="matrix(.00000013 .0585994 -.105479 .00000008 37.113425 -5.64561)" gradientUnits="userSpaceOnUse" r="21.166656" xlink:href="#c"/><linearGradient id="h" gradientUnits="userSpaceOnUse" x1="11.65929" x2="11.65929" y1="21.02539814717" y2="2.17207757661"><stop offset="0" stop-color="#d7ccc8"/><stop offset="1" stop-color="#efebe9"/></linearGradient><linearGradient id="i" gradientTransform="matrix(.0224206 0 0 .082039 11.281817 -12.270683)" gradientUnits="userSpaceOnUse" x1="249.189423" x2="249.189423" xlink:href="#a" y1="233.5" y2="254.666687"/><linearGradient id="j"><stop offset="0" stop-color="#a1887f"/><stop offset="1" stop-color="#bcaaa4"/></linearGradient><linearGradient id="k" gradientUnits="userSpaceOnUse" x1="15.87652349995" x2="15.87652349995" xlink:href="#j" y1="21.02545025" y2="2.17207774998"/><linearGradient id="l" gradientUnits="userSpaceOnUse" x1="248.708335" x2="248.708335" xlink:href="#j" y1="233.500003" y2="-168.666669"/><path d="m5.953125 21.027344h11.410156v.992187h-11.410156zm0 0" fill="url(#b)"/><path d="m17.363281 21.027344h1.984375v-.996094h-1.984375zm0 0" fill="url(#d)"/><path d="m5.953125 21.027344h-1.984375v.992187h1.984375zm0 0" fill="url(#e)"/><path d="m5.953125 21.027344h-1.984375v-.996094h1.984375zm0 0" fill="url(#f)"/><path d="m17.363281 21.027344h1.984375v.992187h-1.984375zm0 0" fill="url(#g)"/><path d="m13.90625 2.171875h-8.945312c-.550782 0-.992188.441406-.992188.992187v16.867188c0 .550781.441406.996094.992188.996094h13.394531c.550781 0 .992187-.445313.992187-.996094v-12.417969zm0 0" fill="url(#h)"/><path d="m13.890625 6.886719h4.714844l.742187.742187v.992188h-5.457031zm0 0" fill="url(#i)"/><path d="m3.96875 19.648438v.382812c0 .550781.441406.996094.992188.996094h13.394531c.550781 0 .992187-.445313.992187-.996094v-.382812c0 .550781-.441406.992187-.992187.992187h-13.394531c-.550782 0-.992188-.441406-.992188-.992187zm0 0" fill-opacity=".235294"/><path d="m4.960938 2.171875c-.550782 0-.992188.441406-.992188.992187v.371094c0-.546875.441406-.992187.992188-.992187h8.945312l5.441406 5.445312v-.375l-5.441406-5.441406zm0 0" fill="#fff" fill-opacity=".392157"/><path d="m19.347656 7.613281-5.441406-5.441406v4.449219c0 .550781.441406.992187.992188.992187zm0 0" fill="url(#k)"/><path d="m13.90625 2.171875v.371094l5.070312 5.070312h.371094zm0 0" fill="#fff" fill-opacity=".392157"/><path d="m13.90625 2.101562c-.039062 0-.070312.03125-.070312.070313v4.449219c0 .589844.476562 1.0625 1.0625 1.0625h4.449218c.03125 0 .054688-.015625.066406-.042969.011719-.023437.003907-.054687-.015624-.074219l-5.441407-5.445312c-.015625-.011719-.03125-.019532-.050781-.019532zm.070312.238282 5.203126 5.203125h-4.28125c-.511719 0-.921876-.410157-.921876-.921875zm0 0" fill="#212121"/><path d="m4.960938 2.101562c-.585938 0-1.0625.476563-1.0625 1.0625v16.867188c0 .589844.476562 1.066406 1.0625 1.066406h13.394531c.589843 0 1.0625-.476562 1.0625-1.066406v-12.417969c0-.015625-.003907-.035156-.019531-.046875l-5.441407-5.445312c-.015625-.011719-.03125-.019532-.050781-.019532zm0 .140626h8.917968l5.398438 5.402343v12.386719c0 .515625-.40625.925781-.921875.925781h-13.394531c-.511719 0-.921876-.410156-.921876-.925781v-16.867188c0-.511718.410157-.921874.921876-.921874zm0 0" fill="#212121"/><path d="m201.064133-31.100895c-5.832777 0-10.582323 4.749547-10.582323 10.582323v126.987873c0 8.082562 8.665839 13.16541 15.665171 9.332442l116.40555-63.493936c7.332633-3.999618 7.332633-14.581941 0-18.581559l-116.40555-63.493937c-1.583183-.833254-3.333015-1.333206-5.082848-1.333206zm0 0" style="fill-rule:evenodd;stroke-width:3;stroke-linecap:round;stroke-linejoin:round;stroke:#212121;fill:url(#l)" transform="matrix(.0468795 0 0 .0468795 0 10.079087)"/></svg>

<svg xmlns="http://www.w3.org/2000/svg" xmlns:xlink="http://www.w3.org/1999/xlink" width="24px" height="24px" viewBox="0 0 24 24" version="1.1">
<defs>
<linearGradient id="linear0" gradientUnits="userSpaceOnUse" x1="33.076088" y1="56.067871" x2="33.076088" y2="58.713959" gradientTransform="matrix(0.375,0,0,0.375,0,0)">
<stop offset="0" style="stop-color:rgb(0%,0%,0%);stop-opacity:0.27451;"/>
<stop offset="1" style="stop-color:rgb(0%,0%,0%);stop-opacity:0;"/>
</linearGradient>
<radialGradient id="radial0" gradientUnits="userSpaceOnUse" cx="450.908936" cy="189.579361" fx="450.908936" fy="189.579361" r="21.166656" gradientTransform="matrix(0.00000013125,-0.0585994,-0.105479,-0.000000075,37.113427,47.6965)">
<stop offset="0" style="stop-color:rgb(0%,0%,0%);stop-opacity:0.313726;"/>
<stop offset="0.222222" style="stop-color:rgb(0%,0%,0%);stop-opacity:0.27451;"/>
<stop offset="1" style="stop-color:rgb(0%,0%,0%);stop-opacity:0;"/>
</radialGradient>
<radialGradient id="radial1" gradientUnits="userSpaceOnUse" cx="450.908936" cy="189.579361" fx="450.908936" fy="189.579361" r="21.166656" gradientTransform="matrix(-0.00000013125,0.0585994,0.105479,0.000000075,-13.794787,-5.645609)">
<stop offset="0" style="stop-color:rgb(0%,0%,0%);stop-opacity:0.313726;"/>
<stop offset="0.222222" style="stop-color:rgb(0%,0%,0%);stop-opacity:0.27451;"/>
<stop offset="1" style="stop-color:rgb(0%,0%,0%);stop-opacity:0;"/>
</radialGradient>
<radialGradient id="radial2" gradientUnits="userSpaceOnUse" cx="450.908936" cy="189.579361" fx="450.908936" fy="189.579361" r="21.166656" gradientTransform="matrix(-0.00000013125,-0.0585994,0.105479,-0.000000075,-13.794787,47.6965)">
<stop offset="0" style="stop-color:rgb(0%,0%,0%);stop-opacity:0.313726;"/>
<stop offset="0.222222" style="stop-color:rgb(0%,0%,0%);stop-opacity:0.27451;"/>
<stop offset="1" style="stop-color:rgb(0%,0%,0%);stop-opacity:0;"/>
</radialGradient>
<radialGradient id="radial3" gradientUnits="userSpaceOnUse" cx="450.908936" cy="189.579361" fx="450.908936" fy="189.579361" r="21.166656" gradientTransform="matrix(0.00000013125,0.0585994,-0.105479,0.000000075,37.113424,-5.64561)">
<stop offset="0" style="stop-color:rgb(0%,0%,0%);stop-opacity:0.313726;"/>
<stop offset="0.222222" style="stop-color:rgb(0%,0%,0%);stop-opacity:0.27451;"/>
<stop offset="1" style="stop-color:rgb(0%,0%,0%);stop-opacity:0;"/>
</radialGradient>
<linearGradient id="linear1" gradientUnits="userSpaceOnUse" x1="31.091534" y1="56.067898" x2="31.091534" y2="5.792224" gradientTransform="matrix(0.375,0,0,0.375,0,0)">
<stop offset="0" style="stop-color:rgb(84.313726%,80.000001%,78.431374%);stop-opacity:1;"/>
<stop offset="1" style="stop-color:rgb(93.725491%,92.156863%,91.37255%);stop-opacity:1;"/>
</linearGradient>
<linearGradient id="linear2" gradientUnits="userSpaceOnUse" x1="249.189423" y1="233.5" x2="249.189423" y2="254.666687" gradientTransform="matrix(0.0224206,0,0,0.0820391,11.281817,-12.270683)">
<stop offset="0" style="stop-color:rgb(0%,0%,0%);stop-opacity:0.27451;"/>
<stop offset="1" style="stop-color:rgb(0%,0%,0%);stop-opacity:0;"/>
</linearGradient>
<linearGradient id="linear3" gradientUnits="userSpaceOnUse" x1="42.337395" y1="56.067867" x2="42.337395" y2="5.792208" gradientTransform="matrix(0.375,0,0,0.375,0,0)">
<stop offset="0" style="stop-color:rgb(63.137257%,53.333336%,49.803922%);stop-opacity:1;"/>
<stop offset="1" style="stop-color:rgb(73.725492%,66.666669%,64.313728%);stop-opacity:1;"/>
</linearGradient>
<linearGradient id="linear4" gradientUnits="userSpaceOnUse" x1="248.708328" y1="233.5" x2="248.708328" y2="-168.666672" >
<stop offset="0" style="stop-color:rgb(63.137257%,53.333336%,49.803922%);stop-opacity:1;"/>
<stop offset="1" style="stop-color:rgb(73.725492%,66.666669%,64.313728%);stop-opacity:1;"/>
</linearGradient>
</defs>
<g id="surface1">
<path style=" stroke:none;fill-rule:nonzero;fill:url(#linear0);" d="M 5.953125 21.023438 L 17.363281 21.023438 L 17.363281 22.019531 L 5.953125 22.019531 Z M 5.953125 21.023438 "/>
<path style=" stroke:none;fill-rule:nonzero;fill:url(#radial0);" d="M 17.363281 21.023438 L 19.347656 21.023438 L 19.347656 20.03125 L 17.363281 20.03125 Z M 17.363281 21.023438 "/>
<path style=" stroke:none;fill-rule:nonzero;fill:url(#radial1);" d="M 5.953125 21.023438 L 3.96875 21.023438 L 3.96875 22.019531 L 5.953125 22.019531 Z M 5.953125 21.023438 "/>
<path style=" stroke:none;fill-rule:nonzero;fill:url(#radial2);" d="M 5.953125 21.023438 L 3.96875 21.023438 L 3.96875 20.03125 L 5.953125 20.03125 Z M 5.953125 21.023438 "/>
<path style=" stroke:none;fill-rule:nonzero;fill:url(#radial3);" d="M 17.363281 21.023438 L 19.347656 21.023438 L 19.347656 22.019531 L 17.363281 22.019531 Z M 17.363281 21.023438 "/>
<path style=" stroke:none;fill-rule:nonzero;fill:url(#linear1);" d="M 13.90625 2.171875 L 4.960938 2.171875 C 4.414062 2.171875 3.96875 2.613281 3.96875 3.164062 L 3.96875 20.03125 C 3.96875 20.582031 4.414062 21.023438 4.960938 21.023438 L 18.359375 21.023438 C 18.90625 21.023438 19.347656 20.582031 19.347656 20.03125 L 19.347656 7.617188 Z M 13.90625 2.171875 "/>
<path style=" stroke:none;fill-rule:nonzero;fill:url(#linear2);" d="M 13.890625 6.886719 L 18.605469 6.886719 L 19.347656 7.628906 L 19.347656 8.621094 L 13.890625 8.621094 Z M 13.890625 6.886719 "/>
<path style=" stroke:none;fill-rule:nonzero;fill:rgb(0%,0%,0%);fill-opacity:0.235294;" d="M 3.96875 19.648438 L 3.96875 20.03125 C 3.96875 20.582031 4.414062 21.023438 4.960938 21.023438 L 18.359375 21.023438 C 18.90625 21.023438 19.347656 20.582031 19.347656 20.03125 L 19.347656 19.648438 C 19.347656 20.195312 18.90625 20.640625 18.359375 20.640625 L 4.960938 20.640625 C 4.414062 20.640625 3.96875 20.195312 3.96875 19.648438 Z M 3.96875 19.648438 "/>
<path style=" stroke:none;fill-rule:nonzero;fill:rgb(100%,100%,100%);fill-opacity:0.392157;" d="M 4.960938 2.171875 C 4.414062 2.171875 3.96875 2.613281 3.96875 3.164062 L 3.96875 3.535156 C 3.96875 2.988281 4.410156 2.542969 4.960938 2.542969 L 13.90625 2.542969 L 19.347656 7.988281 L 19.347656 7.617188 L 13.90625 2.171875 Z M 4.960938 2.171875 "/>
<path style=" stroke:none;fill-rule:nonzero;fill:url(#linear3);" d="M 19.347656 7.617188 L 13.90625 2.171875 L 13.90625 6.621094 C 13.90625 7.171875 14.351562 7.617188 14.898438 7.617188 Z M 19.347656 7.617188 "/>
<path style=" stroke:none;fill-rule:nonzero;fill:rgb(100%,100%,100%);fill-opacity:0.392157;" d="M 13.90625 2.171875 L 13.90625 2.542969 L 18.976562 7.617188 L 19.347656 7.617188 Z M 13.90625 2.171875 "/>
<path style=" stroke:none;fill-rule:nonzero;fill:rgb(12.941177%,12.941177%,12.941177%);fill-opacity:1;" d="M 13.90625 2.101562 C 13.867188 2.101562 13.835938 2.132812 13.835938 2.171875 L 13.835938 6.621094 C 13.835938 7.210938 14.3125 7.6875 14.898438 7.6875 L 19.347656 7.6875 C 19.378906 7.683594 19.402344 7.667969 19.414062 7.640625 C 19.425781 7.617188 19.417969 7.585938 19.398438 7.566406 L 13.957031 2.121094 C 13.941406 2.109375 13.925781 2.101562 13.90625 2.101562 Z M 13.976562 2.34375 L 19.179688 7.542969 L 14.898438 7.542969 C 14.386719 7.542969 13.976562 7.136719 13.976562 6.621094 Z M 13.976562 2.34375 "/>
<path style=" stroke:none;fill-rule:nonzero;fill:rgb(12.941177%,12.941177%,12.941177%);fill-opacity:1;" d="M 4.960938 2.101562 C 4.375 2.101562 3.898438 2.578125 3.898438 3.164062 L 3.898438 20.03125 C 3.898438 20.621094 4.375 21.09375 4.960938 21.09375 L 18.359375 21.09375 C 18.945312 21.09375 19.417969 20.621094 19.417969 20.03125 L 19.417969 7.617188 C 19.417969 7.597656 19.414062 7.578125 19.398438 7.566406 L 13.957031 2.121094 C 13.941406 2.109375 13.925781 2.101562 13.90625 2.101562 Z M 4.960938 2.242188 L 13.878906 2.242188 L 19.277344 7.644531 L 19.277344 20.03125 C 19.277344 20.542969 18.867188 20.953125 18.359375 20.953125 L 4.960938 20.953125 C 4.449219 20.953125 4.039062 20.542969 4.039062 20.03125 L 4.039062 3.164062 C 4.039062 2.652344 4.449219 2.242188 4.960938 2.242188 Z M 4.960938 2.242188 "/>
<path style="fill-rule:evenodd;fill:url(#linear4);stroke-width:3;stroke-linecap:round;stroke-linejoin:round;stroke:rgb(12.941177%,12.941177%,12.941177%);stroke-opacity:1;stroke-miterlimit:4;" d="M 201.064039 -31.100872 C 195.231265 -31.100872 190.481721 -26.351328 190.481721 -20.518554 L 190.481721 106.46926 C 190.481721 114.551817 199.147556 119.634663 206.146884 115.801698 L 322.55238 52.307791 C 329.88501 48.224849 329.88501 37.725857 322.55238 33.72624 L 206.146884 -29.767666 C 204.647028 -30.684245 202.897196 -31.100872 201.064039 -31.100872 Z M 201.064039 -31.100872 " transform="matrix(0.0468795,0,0,0.0468795,0,10.079087)"/>
</g>
</svg>
